src/assets/images/social/icon-discord.svg

<svg width="20" height="16" viewBox="0 0 20 16" fill="none" xmlns="http://www.w3.org/2000/svg">
<path d="M16.9308 1.64136C15.6561 1.05646 14.2892 0.625532 12.8599 0.378721C12.8339 0.373958 12.8079 0.385861 12.7945 0.40967C12.6187 0.722349 12.4239 1.13026 12.2876 1.45088C10.7503 1.22074 9.22099 1.22074 7.71527 1.45088C7.57887 1.12314 7.37707 0.722349 7.20048 0.40967C7.18707 0.386656 7.16107 0.374752 7.13504 0.378721C5.70659 0.624743 4.33963 1.05567 3.06411 1.64136C3.05307 1.64612 3.04361 1.65407 3.03732 1.66438C0.444493 5.53801 -0.265792 9.31643 0.0826501 13.048C0.0842267 13.0663 0.0944749 13.0837 0.108665 13.0948C1.81934 14.3511 3.47642 15.1138 5.10273 15.6193C5.12876 15.6273 5.15634 15.6177 5.1729 15.5963C5.55761 15.0709 5.90054 14.517 6.19456 13.9345C6.21192 13.9003 6.19535 13.8599 6.15989 13.8464C5.61594 13.64 5.098 13.3885 4.59977 13.1028C4.56037 13.0798 4.55721 13.0234 4.59347 12.9964C4.69831 12.9178 4.80318 12.8361 4.9033 12.7536C4.92141 12.7385 4.94665 12.7353 4.96794 12.7448C8.24107 14.2392 11.7846 14.2392 15.0191 12.7448C15.0404 12.7345 15.0657 12.7377 15.0846 12.7528C15.1847 12.8353 15.2895 12.9178 15.3952 12.9964C15.4314 13.0234 15.4291 13.0798 15.3897 13.1028C14.8914 13.394 14.3735 13.64 13.8288 13.8456C13.7933 13.8591 13.7775 13.9003 13.7949 13.9345C14.0952 14.5162 14.4381 15.0701 14.8157 15.5955C14.8315 15.6177 14.8599 15.6273 14.8859 15.6193C16.5201 15.1138 18.1772 14.3511 19.8879 13.0948C19.9028 13.0837 19.9123 13.0671 19.9139 13.0488C20.3309 8.73469 19.2154 4.98725 16.9568 1.66517C16.9513 1.65407 16.9419 1.64612 16.9308 1.64136ZM6.68335 10.7759C5.69792 10.7759 4.88594 9.87117 4.88594 8.7601C4.88594 7.64903 5.68217 6.74432 6.68335 6.74432C7.69239 6.74432 8.49651 7.65697 8.48073 8.7601C8.48073 9.87117 7.68451 10.7759 6.68335 10.7759ZM13.329 10.7759C12.3435 10.7759 11.5316 9.87117 11.5316 8.7601C11.5316 7.64903 12.3278 6.74432 13.329 6.74432C14.338 6.74432 15.1421 7.65697 15.1264 8.7601C15.1264 9.87117 14.338 10.7759 13.329 10.7759Z" fill="white"/>
</svg>

<svg width="20" height="16" fill="none" xmlns="http://www.w3.org/2000/svg"><path d="M16.93 1.641A16.491 16.491 0 0 0 12.86.38a.062.062 0 0 0-.066.03c-.175.313-.37.721-.506 1.042a15.226 15.226 0 0 0-4.573 0A10.54 10.54 0 0 0 7.2.41a.064.064 0 0 0-.065-.031 16.447 16.447 0 0 0-4.07 1.262.058.058 0 0 0-.028.023C.444 5.538-.266 9.316.083 13.048a.069.069 0 0 0 .026.047 16.584 16.584 0 0 0 4.994 2.524.065.065 0 0 0 .07-.023c.385-.525.728-1.079 1.022-1.662a.063.063 0 0 0-.035-.088 10.927 10.927 0 0 1-1.56-.743.064.064 0 0 1-.007-.107c.105-.078.21-.16.31-.242a.062.062 0 0 1 .065-.01c3.273 1.495 6.817 1.495 10.051 0a.062.062 0 0 1 .066.009c.1.082.204.165.31.243a.064.064 0 0 1-.005.107c-.499.291-1.017.537-1.561.743a.064.064 0 0 0-.034.088c.3.582.643 1.136 1.02 1.662a.063.063 0 0 0 .07.023 16.53 16.53 0 0 0 5.003-2.524.064.064 0 0 0 .026-.046c.417-4.314-.699-8.062-2.957-11.384a.05.05 0 0 0-.026-.024ZM6.684 10.776c-.985 0-1.797-.905-1.797-2.016s.796-2.016 1.797-2.016c1.01 0 1.814.913 1.798 2.016 0 1.111-.796 2.016-1.798 2.016Zm6.646 0c-.986 0-1.797-.905-1.797-2.016s.796-2.016 1.797-2.016c1.009 0 1.813.913 1.797 2.016 0 1.111-.788 2.016-1.797 2.016Z" fill="#fff"/></svg>
